X:1
T:3 Spring Songs
T:The Dew Upon the Lily
T:3 Spring Songs
T:Edward German
T:2. The Dew Upon the Lily
T:Harold Boulton
T:Creative Commons copyright waiver (CC0 1.0 Universal)
T:Creative Commons copyright waiver (CC0 1.0 Universal)
T:Creative Commons copyright waiver (CC0 1.0 Universal)
T:Creative Commons copyright waiver (CC0 1.0 Universal)
T:Creative Commons copyright waiver (CC0 1.0 Universal)
C:Edward German
Z:Harold Boulton
Z:Creative Commons copyright waiver (CC0 1.0 Universal)
%%score 1 { ( 2 5 ) | ( 3 4 ) }
L:1/8
Q:1/4=92
M:3/4
K:A
V:1 treble nm="Voice"
V:2 treble nm="Piano"
V:5 treble 
V:3 bass 
V:4 bass 
V:1
"^Andantino" z6 | z6 | z6 | z6 | z6 | z2 z2!p! c2 | B3 A G B | A2 A2 z c | e3 c ^A c | B4 B2 | %10
w: |||||The|dew up- on the|li- ly, The|blush up- on the|rose, Has|
 d B B2 d2 | c A A2 c2 | B3!>(! A G B!>)! | A4!<(! c2 | c3!<)! G A B | G2 G2 z G | c3 G A B | %17
w: no more rare and|ten- der charm Than|round thy pre- sence|grows. There’s|mu- sic in the|mea- dow, There’s|rap- ture in the|
!<(! G4 c2!<)! |!f! f6- | f!>(! e d c B F!>)! | A2 G3 G | c3!>(! B A G!>)! | %22
w: air, When|through|_ the throng of whis- p’ring|flow- ers, the|throng of whis- p’ring|
!p![Q:1/4=91] F2 d2 c2 |"^rit."[Q:1/4=88]!>(! F3 F G[Q:1/4=80] (A/B/) | %24
w: flow- ers Thy|dain- ty feet re- *|
[Q:1/4=88] A6!>)![Q:1/4=92] | z6 | z6 | z6 | z2 z2!p! c2 | B3 A G B | A2 A2 z c | e3 c ^A c | %32
w: pair.||||The|haw- thorn waves a-|bove thee, The|vio- let peeps be-|
 B4 B2 | d B B2 d2 | c A A2 c2 | B3 A G B | A4!<(! c2!<)! |!mf! c3 G A B | G2 G2 z G | c3 G A B | %40
w: low, And|ev- ’ry bloom sheds|rich per- fume Like|in- cense where you|go. I|wait where, ’neath the|al- der, Two|wand- ’ring brook- lets|
 G4!f! c2 | f6- | f e d c B F | (A2 G3)"^dim." G | c3!>(! B A G!>)! |!p! (F2 d2) c2 | %46
w: meet; Oh!|Come|_ my Queen of love and|joy, _ my|Queen of love and|joy, _ And|
!pp![Q:1/4=90] F3"^rall."[Q:1/4=86] F G[Q:1/4=80] (A/B/) |[Q:1/4=90] (A6 | E6-) | %49
w: make the Spring com- *|plete|_|
!>(! E4!>)!!ppp! E2 |[Q:1/4=88]!>(! E6-!>)![Q:1/4=80] |!>(! E6!>)! |] %52
w: * com-|plete.|_|
V:2
!p! !arpeggio![DGd]6 |"^cantabile"!p!!<(! !arpeggio![CAe]4 (!tenuto![Aea]2!<)! | %2
!mp! [Gdg][Ee] [DGd]2 [FGf]2 | ec [DFA]2 [DGB]2 | [CAc]2) z2 z2 |!>(! z2 z2!>)!!p! c2 | %6
 ([DB]3 [CA] [B,G][DB] | [CA]2) [CA]2 z (c | [=Ge]3 [Ec] [C^A][Ec] | [DB]4) ([DB]2 | %10
 [Fd][DB] [DB]2 [Fd]2 | [Ec][CA] [CA]2) (c2 | [DB]3 [CA]!>(! [B,G][DB]!>)! | %13
 [CA]4)!<(! [Cc][Cc]!<)! | [Cc][Cc][CEc][Cc][CFc][Cc] | [CGc][Cc][CEc][Cc][Cc][Cc] | %16
 [Cc][Cc][CEc]C[CFc]C |!<(! [CGc][Cc][C^Ec][Cc][Cc][Cc]!<)! | %18
!f! [Ff][Ff][Ff]!tenuto![Fef]!tenuto![Fdf]!tenuto![Fcf] | !tenuto![FBf](edcBF |!p! A2 G3) G | %21
 (c3!>(! B AG)!>)! |!pp! [EF][EF][DGd][DGd][CAc][CAc] | %23
"_colla voce" [EF][EF][DF][DF]!>(! G(A/B/)!>)! |!<(! [CEA]4!<)!!mf!"^a tempo" ([Aea]2 | %25
 [Gdg][Ee] [DGd]2 [FGf]2 | ec [DFA]2 [DGB]2 | [CAc]2) z2 z2 |!>(! z2 z2!>)!!p! c2 | %29
 ([DB]3 [CA][B,G][DB] | [CA]2) [CA]2 z (c | [=Ge]3 [Ec][C^A][Ec] | [DB]4) ([DB]2 | %33
 [Fd][DB] [DB]2 [Fd]2 | [Ec][CA] [CA]2) (c2 | [DB]3 [CA] [B,G][DB] | [CA]4)!<(! [Cc][Cc]!<)! | %37
!mf! [Cc][Cc][CEc][Cc][CFc][Cc] | [CGc][Cc][CEc][Cc][Cc][Cc] | [Cc][Cc][CEc][Cc][CFc][Cc] | %40
"^cf bar 18,\nG missing\nV\n      V>>>\n"!<(! [Cc][Cc][C^Ec]C[CEc][Cc]!<)! | %41
!f! [Ff][Ff][Ff]!tenuto![Fef]!tenuto![Fdf]!tenuto![Fcf] | %42
!ff!"_dim. colla voce." !tenuto![FBf](edcBF) |!p! (A2 G3) G | (c3!>(! B AG)!>)! | %45
!pp! [EF][EF][DGd][DGd][CAc][CAc] |!>(! [EF]"_colla voce."[EF][DF][DF] G(A/B/)!>)! | %47
 [CEA]4!pp! ([Aa]2 | [Gdg][Ee] [DGd]2 [FGf]2 | ec [DFA]2 [DGB]2 | [CAc]2) z2 z2 |!ppp! [ac']6 |] %52
V:3
!ped! !arpeggio![B,,E,]6!ped-up! |!ped! (A,,E,A,E,CE,)!ped-up! |!ped! (A,,E,B,E,DE,)!ped-up! | %3
 (A,,E,CE,B,E,) |!ped! [A,,E,]!p!!<(!EEEEE!<)! | EEEEEE!ped-up! | EEEEEE |!ped! EEEEEE!ped-up! | %8
!ped! EEEEEE!ped-up! |!ped!!<(! EEEEEE!ped-up!!<)! |!ped!!>(! EEEEEE!ped-up!!>)! | %11
!ped! EEEEEE!ped-up! | EEEEEE | EEEE z2 |!ped! [C,G,]2 G,2!ped-up! A,2 |!ped! B,2 G,2 z2!ped-up! | %16
!ped! [C,G,]2 G,2!ped-up! A,2 |!ped! B,2 G,2 [C,B,]2!ped-up! | (A,2 !>!^A,4) | [D,B,]6 | %20
 [B,,^E,]4 [B,,E,]2 | ^E,2 F,4 | (F,2 G,2) G,2 | A,4 E,2 |!ped! (A,,E,A,E,CE,)!ped-up! | %25
!ped! (A,,E,B,E,DE,)!ped-up! | (A,,E,CE,B,E,) |!ped! [A,,E,]!mp!!<(!EEEEE!<)! | EEEEEE!ped-up! | %29
 EEEEEE | EEEEEE |!ped! EEEEEE!ped-up! |!ped!!<(! EEEEEE!ped-up!!<)! | %33
!ped!!>(! EEEEEE!ped-up!!>)! |!ped! EEEEEE!ped-up! | EEEEEE | EEEE z2 | %37
!ped! [C,G,]2 G,2!ped-up! A,2 |!ped! B,2 G,2 z2!ped-up! |!ped! [C,G,]2 G,2!ped-up! A,2 | %40
!ped! B,2 G,2 [C,A,]2!ped-up! | (A,2 !>!^A,4) |!ped! [D,B,]6!ped-up! | [B,,^E,]4 [B,,E,]2 | %44
 ^E,2 F,4 | (F,2 G,2) A,2 | A,4[I:staff -1] [DE][DE] |!ped![I:staff +1] (A,,E,A,E,CE,)!ped-up! | %48
!ped! A,,E,B,E,DE,!ped-up! |!>(! A,,E,CE,B,E, | %50
!ped! (A,,E,A,!tenuto!C[I:staff -1]!tenuto!E!tenuto!A | !tenuto!c6)!>)!!ped-up! |] %52
V:4
 x6 | A,,6 | A,,6 | A,,6 | x6 | x6 | x6 | x6 | x6 | x6 | x6 | x6 | x6 | x6 | x6 | x6 | x6 | x6 | %18
 D,6 | x6 | x6 | A,,6 | B,,4 C,2 | (D,2 B,,2) x2 | A,,6 | A,,6 | A,,6 | x6 | x6 | x6 | x6 | x6 | %32
 x6 | x6 | x6 | x6 | x6 | x6 | x6 | x6 | x6 | D,6 | x6 | x6 | A,,6 | B,,4 C,2 | (D,2 B,,2) E,2 | %47
 A,,6 | A,,6 | A,,6 | [A,,,A,,]6 | x6 |] %52
V:5
 x6 | x6 | x6 | [EA]2 x4 | x6 | x6 | x6 | x6 | x6 | x6 | x6 | x6 | x6 | x6 | x6 | x6 | x6 | x6 | %18
 x6 | x6 | =D4 D2 | C2 C4 | x6 | x4 [DE][DE] | x6 | x6 | [EA]2 x4 | x6 | x6 | x6 | x6 | x6 | x6 | %33
 x6 | x6 | x6 | x6 | x6 | x6 | x6 | x6 | x6 | x6 | =D4"_dim." C2 | C2 C4 | x6 | x6 | x6 | x6 | %49
 [EA]2 x4 | x6 | x6 |] %52

